priv/static/svgs/icons_new/travel-bill.svg

<svg width="32" height="32" viewBox="0 0 32 32" fill="none" xmlns="http://www.w3.org/2000/svg">
<path d="M8 6L8.33914 5.6326C8.19321 5.49789 7.98139 5.46232 7.79946 5.54198C7.61754 5.62163 7.5 5.8014 7.5 6H8ZM9.625 7.5L9.28586 7.8674C9.47739 8.0442 9.77261 8.0442 9.96414 7.8674L9.625 7.5ZM11.25 6L11.5891 5.6326C11.3976 5.4558 11.1024 5.4558 10.9109 5.6326L11.25 6ZM12.875 7.5L12.5359 7.8674C12.7274 8.0442 13.0226 8.0442 13.2141 7.8674L12.875 7.5ZM14.5 6L14.8391 5.6326C14.6476 5.4558 14.3524 5.4558 14.1609 5.6326L14.5 6ZM16.125 7.5L15.7859 7.8674C15.9774 8.0442 16.2726 8.0442 16.4641 7.8674L16.125 7.5ZM17.75 6L18.0891 5.6326C17.8976 5.4558 17.6024 5.4558 17.4109 5.6326L17.75 6ZM19.375 7.5L19.0359 7.8674C19.2274 8.0442 19.5226 8.0442 19.7141 7.8674L19.375 7.5ZM21 6H21.5C21.5 5.8014 21.3825 5.62163 21.2005 5.54198C21.0186 5.46232 20.8068 5.49789 20.6609 5.6326L21 6ZM20.5 20C20.5 20.2761 20.7239 20.5 21 20.5C21.2761 20.5 21.5 20.2761 21.5 20H20.5ZM14 22V21.5C13.7239 21.5 13.5 21.7239 13.5 22H14ZM25.5 22H26V21.5H25.5V22ZM11 16.8C10.7239 16.8 10.5 17.0239 10.5 17.3C10.5 17.5762 10.7239 17.8 11 17.8V16.8ZM17.5 17.8C17.7761 17.8 18 17.5762 18 17.3C18 17.0239 17.7761 16.8 17.5 16.8V17.8ZM11 19C10.7239 19 10.5 19.2239 10.5 19.5C10.5 19.7761 10.7239 20 11 20V19ZM16.5 20C16.7761 20 17 19.7761 17 19.5C17 19.2239 16.7761 19 16.5 19V20ZM16.4667 11.0312C16.7429 11.0312 16.9667 10.8074 16.9667 10.5312C16.9667 10.2551 16.7429 10.0312 16.4667 10.0312V11.0312ZM12.8 13.4687C12.5239 13.4687 12.3 13.6926 12.3 13.9687C12.3 14.2449 12.5239 14.4687 12.8 14.4687V13.4687ZM15.1334 9.5C15.1334 9.22386 14.9095 9 14.6334 9C14.3572 9 14.1334 9.22386 14.1334 9.5H15.1334ZM14.1334 15C14.1334 15.2761 14.3572 15.5 14.6334 15.5C14.9095 15.5 15.1334 15.2761 15.1334 15H14.1334ZM7.66086 6.3674L9.28586 7.8674L9.96414 7.1326L8.33914 5.6326L7.66086 6.3674ZM9.96414 7.8674L11.5891 6.3674L10.9109 5.6326L9.28586 7.1326L9.96414 7.8674ZM10.9109 6.3674L12.5359 7.8674L13.2141 7.1326L11.5891 5.6326L10.9109 6.3674ZM13.2141 7.8674L14.8391 6.3674L14.1609 5.6326L12.5359 7.1326L13.2141 7.8674ZM14.1609 6.3674L15.7859 7.8674L16.4641 7.1326L14.8391 5.6326L14.1609 6.3674ZM16.4641 7.8674L18.0891 6.3674L17.4109 5.6326L15.7859 7.1326L16.4641 7.8674ZM17.4109 6.3674L19.0359 7.8674L19.7141 7.1326L18.0891 5.6326L17.4109 6.3674ZM19.7141 7.8674L21.3391 6.3674L20.6609 5.6326L19.0359 7.1326L19.7141 7.8674ZM7.5 6V22H8.5V6H7.5ZM20.5 6V20H21.5V6H20.5ZM13.5 22C13.5 23.3807 12.3807 24.5 11 24.5V25.5C12.933 25.5 14.5 23.933 14.5 22H13.5ZM11 24.5C9.61929 24.5 8.5 23.3807 8.5 22H7.5C7.5 23.933 9.067 25.5 11 25.5V24.5ZM14 22.5H25.5V21.5H14V22.5ZM25 22C25 23.3807 23.8807 24.5 22.5 24.5V25.5C24.433 25.5 26 23.933 26 22H25ZM22.5 24.5H11V25.5H22.5V24.5ZM11 17.8H17.5V16.8H11V17.8ZM11 20H16.5V19H11V20ZM13.7167 11.75C13.4557 11.75 13.3 11.5592 13.3 11.3906H12.3C12.3 12.1713 12.9652 12.75 13.7167 12.75V11.75ZM13.3 11.3906C13.3 11.222 13.4557 11.0312 13.7167 11.0312V10.0312C12.9652 10.0312 12.3 10.6099 12.3 11.3906H13.3ZM13.7167 11.0312H14.6334V10.0312H13.7167V11.0312ZM14.6334 11.0312H16.4667V10.0312H14.6334V11.0312ZM13.7167 12.75H15.55V11.75H13.7167V12.75ZM15.55 14.4687C16.3016 14.4687 16.9667 13.89 16.9667 13.1094H15.9667C15.9667 13.2779 15.8111 13.4687 15.55 13.4687V14.4687ZM16.9667 13.1094C16.9667 12.3287 16.3016 11.75 15.55 11.75V12.75C15.8111 12.75 15.9667 12.9408 15.9667 13.1094H16.9667ZM15.55 13.4687H14.6334V14.4687H15.55V13.4687ZM14.6334 13.4687H12.8V14.4687H14.6334V13.4687ZM15.1334 10.5312V9.5H14.1334V10.5312H15.1334ZM15.1334 15V13.9687H14.1334V15H15.1334Z" fill="black"/>
</svg>

<svg width="32" height="32" viewBox="0 0 32 32" fill="none" xmlns="http://www.w3.org/2000/svg">
  <symbol id="item" viewBox="0 0 32 32"  fill="none">
    <path d="m8 6 .34-.367A.5.5 0 0 0 7.5 6H8Zm1.625 1.5-.34.367a.5.5 0 0 0 .68 0l-.34-.367ZM11.25 6l.34-.367a.5.5 0 0 0-.68 0l.34.367Zm1.625 1.5-.34.367a.5.5 0 0 0 .68 0l-.34-.367ZM14.5 6l.34-.367a.5.5 0 0 0-.68 0L14.5 6Zm1.625 1.5-.34.367a.5.5 0 0 0 .68 0l-.34-.367ZM17.75 6l.34-.367a.5.5 0 0 0-.68 0l.34.367Zm1.625 1.5-.34.367a.5.5 0 0 0 .68 0l-.34-.367ZM21 6h.5a.5.5 0 0 0-.84-.367L21 6Zm-.5 14a.5.5 0 0 0 1 0h-1ZM14 22v-.5a.5.5 0 0 0-.5.5h.5Zm11.5 0h.5v-.5h-.5v.5ZM11 16.8a.5.5 0 0 0 0 1v-1Zm6.5 1a.5.5 0 1 0 0-1v1ZM11 19a.5.5 0 0 0 0 1v-1Zm5.5 1a.5.5 0 0 0 0-1v1Zm-.033-8.969a.5.5 0 1 0 0-1v1ZM12.8 13.47a.5.5 0 0 0 0 1v-1ZM15.133 9.5a.5.5 0 0 0-1 0h1Zm-1 5.5a.5.5 0 1 0 1 0h-1ZM7.661 6.367l1.625 1.5.678-.734-1.625-1.5-.678.734Zm2.303 1.5 1.625-1.5-.678-.734-1.625 1.5.678.734Zm.947-1.5 1.625 1.5.678-.734-1.625-1.5-.678.734Zm2.303 1.5 1.625-1.5-.678-.734-1.625 1.5.678.734Zm.947-1.5 1.625 1.5.678-.734-1.625-1.5-.678.734Zm2.303 1.5 1.625-1.5-.678-.734-1.625 1.5.678.734Zm.947-1.5 1.625 1.5.678-.734-1.625-1.5-.678.734Zm2.303 1.5 1.625-1.5-.678-.734-1.625 1.5.678.734ZM7.5 6v16h1V6h-1Zm13 0v14h1V6h-1Zm-7 16a2.5 2.5 0 0 1-2.5 2.5v1a3.5 3.5 0 0 0 3.5-3.5h-1ZM11 24.5A2.5 2.5 0 0 1 8.5 22h-1a3.5 3.5 0 0 0 3.5 3.5v-1Zm3-2h11.5v-1H14v1Zm11-.5a2.5 2.5 0 0 1-2.5 2.5v1A3.5 3.5 0 0 0 26 22h-1Zm-2.5 2.5H11v1h11.5v-1ZM11 17.8h6.5v-1H11v1Zm0 2.2h5.5v-1H11v1Zm2.717-8.25c-.261 0-.417-.19-.417-.36h-1c0 .781.665 1.36 1.417 1.36v-1Zm-.417-.36c0-.168.156-.359.417-.359v-1c-.752 0-1.417.579-1.417 1.36h1Zm.417-.359h.916v-1h-.916v1Zm.916 0h1.834v-1h-1.834v1Zm-.916 1.719h1.833v-1h-1.833v1Zm1.833 1.719c.752 0 1.417-.579 1.417-1.36h-1c0 .169-.156.36-.417.36v1Zm1.417-1.36c0-.78-.665-1.359-1.417-1.359v1c.261 0 .417.19.417.36h1Zm-1.417.36h-.917v1h.917v-1Zm-.917 0H12.8v1h1.833v-1Zm.5-2.938V9.5h-1v1.031h1Zm0 4.469v-1.031h-1V15h1Z" fill="currentColor"/>
  </symbol>
</svg>
